X:195
T:Arcadian Nuptuals
M:9/8
L:1/8
B:Thompson's Compleat Collection of 200 Favourite Country Dances, vol. 3 (London, 1773)
Z:Transcribed and edited by Flynn Titford-Mock, 2007
Z:abc's:AK/Fiddler's Companion
K:F
F3 AFA cAc | F3 dBd G3 | F3 AFA cAc | def gfe f3 :|
|: a3 afd afd | efg gec | gec | a3 afd gec | def gfe f3 :|
|: cAF cAF Acf | dBG dBG Bdg | cAF cAF Acf | cBA GFE F3 :|

